packages/components/src/components/icon/common/ic-advcash-light.svg

<svg width="128" height="80" viewBox="0 0 128 80" fill="none" xmlns="http://www.w3.org/2000/svg">
<path d="M15.0148 38.9464L16.9248 33.877H4L5.89564 38.9464H15.0148Z" fill="#00AF7E"/>
<path d="M27.9395 38.9464L29.8495 33.877H21.8217L23.7174 38.9464H27.9395Z" fill="#00AF7E"/>
<path d="M19.7683 41.4739L21.6783 46.529H5.89564L4 41.4739H19.7683Z" fill="#00AF7E"/>
<path d="M27.9397 46.529L29.8497 41.4739H24.7372L26.6759 46.529H27.9397Z" fill="#00AF7E"/>
<path d="M23.3532 51.394H28.3939L23.5399 38.7563L21.6012 33.6869L19.4183 28H13.9899L11.807 33.6869H16.7041L18.5997 38.7563L23.3532 51.394Z" fill="#141A23"/>
<path d="M9.86812 38.7562H14.7939L13.8461 41.2837H8.89157L9.86812 38.7562Z" fill="#141A23"/>
<path d="M6.95309 46.3388H11.9507L10.0551 51.3938H5L6.95309 46.3388Z" fill="#141A23"/>
<path d="M31.4815 50.4033C31.3954 50.6905 31.18 50.8629 30.8927 50.8629C30.7061 50.8629 30.5481 50.8054 30.4332 50.6762C30.3183 50.5469 30.2609 50.3889 30.2609 50.1879C30.2609 50.0012 30.3183 49.8432 30.4476 49.7283C30.5768 49.5991 30.7204 49.5416 30.8927 49.5416C31.0364 49.5416 31.1656 49.5847 31.2661 49.6709C31.381 49.7571 31.4528 49.8719 31.4815 50.0012L31.2374 50.0874C31.1943 49.8863 31.0651 49.7571 30.8927 49.7571C30.6773 49.7571 30.5337 49.9294 30.5337 50.2023C30.5337 50.4607 30.6773 50.6331 30.8927 50.6331C31.0794 50.6331 31.1943 50.5182 31.2374 50.3028L31.4815 50.4033Z" fill="#141A23"/>
<path fill-rule="evenodd" clip-rule="evenodd" d="M30.864 51.4517C30.5194 51.4517 30.2178 51.3368 29.9736 51.0926C29.7295 50.8485 29.6146 50.5613 29.6146 50.2166C29.6146 49.8719 29.7295 49.5704 29.9736 49.3406C30.2178 49.0965 30.505 48.9816 30.864 48.9816C31.2087 48.9816 31.5103 49.0965 31.74 49.3406C31.9842 49.5847 32.0991 49.8719 32.0991 50.2166C32.0991 50.5613 31.9842 50.8629 31.74 51.0926C31.5103 51.3224 31.2087 51.4517 30.864 51.4517ZM31.6108 50.9634C31.8119 50.7623 31.9124 50.5038 31.9124 50.2023C31.9124 49.9007 31.8119 49.6565 31.6108 49.4555C31.4097 49.2544 31.1656 49.1539 30.864 49.1539C30.5768 49.1539 30.3183 49.2544 30.1173 49.4555C29.9162 49.6565 29.8157 49.915 29.8157 50.2023C29.8157 50.5038 29.9162 50.748 30.1173 50.9634C30.3183 51.1644 30.5768 51.265 30.864 51.265C31.1512 51.265 31.4097 51.1644 31.6108 50.9634Z" fill="#141A23"/>
<path fill-rule="evenodd" clip-rule="evenodd" d="M35.2585 51.365H38.5471L39.9976 47.229H47.0631L48.6285 51.365H52.2187L45.4116 33.658H41.8214L35.2585 51.365ZM46.0004 44.3999H41.0172L43.4442 37.5928L46.0004 44.3999Z" fill="#141A23"/>
<path fill-rule="evenodd" clip-rule="evenodd" d="M60.8066 51.365V47.9471C60.3615 50.2305 59.1264 51.6091 56.7856 51.6091C54.3729 51.6091 51.9747 49.6704 51.9747 45.4052C51.9747 41.2693 54.3873 39.3305 56.7856 39.3305C59.1264 39.3305 60.3471 40.6805 60.8066 42.9495V33.658H63.8799V51.365H60.8066ZM58.1499 49.4406C59.6865 49.4406 60.7205 48.0189 60.7205 45.3765C60.7205 42.8202 59.6865 41.4129 58.1499 41.4129C56.6132 41.4129 55.3926 42.8346 55.3926 45.3765C55.3782 48.0333 56.6132 49.4406 58.1499 49.4406Z" fill="#141A23"/>
<path d="M70.1125 51.365H72.238L77.4797 39.5603H74.507L71.4337 47.2578L68.4179 39.5603H65.0431L70.1125 51.365Z" fill="#141A23"/>
<path d="M83.4106 39.3165C85.8663 39.3165 88.1497 40.8818 88.7241 43.3375L85.9094 44.3715C85.5073 42.203 84.5163 41.2983 83.2239 41.2983C81.6442 41.2983 80.6102 42.7631 80.6102 45.4342C80.6102 48.2921 81.8596 49.5702 83.2526 49.5702C84.6887 49.5702 85.4498 48.4644 85.9237 46.2672L88.7385 47.3012C88.2933 49.9148 85.9237 51.5951 83.4249 51.5951C80.007 51.5951 77.1923 49.0676 77.1923 45.4342C77.1779 41.844 79.9926 39.3165 83.4106 39.3165Z" fill="#141A23"/>
<path d="M107.594 44.0842C105.699 43.6821 105.11 43.3518 105.11 42.7199C105.11 42.0593 105.67 41.6141 106.805 41.571C107.839 41.571 108.715 42.0019 109.303 43.1364L111.4 42.0737C110.524 40.0201 108.657 39.2877 106.675 39.2877C104.291 39.2877 102.353 40.5514 102.353 42.9066C102.353 45.1038 103.645 46.1522 106.388 46.7123C108.284 47.1144 108.873 47.5165 108.873 48.2058C108.873 48.8377 108.37 49.2398 107.121 49.2398C105.799 49.2398 104.708 48.7515 104.119 47.617L102.022 48.7946C102.898 50.6615 104.593 51.5806 107.049 51.5806C110.337 51.5806 111.63 49.8142 111.63 47.7606C111.63 45.8075 110.61 44.7161 107.594 44.0842Z" fill="#141A23"/>
<path d="M116.225 51.365H113.152V33.658H116.225V43.4377C116.671 40.8241 117.906 39.3305 120.246 39.3305C122.085 39.3305 123.794 40.5799 123.794 43.0356V51.365H120.72V44.1845C120.72 43.6388 120.548 43.1505 120.246 42.6479C119.945 42.1453 119.442 41.9155 118.753 41.9155C116.857 41.9155 116.225 43.8255 116.225 44.7446V51.365Z" fill="#141A23"/>
<path fill-rule="evenodd" clip-rule="evenodd" d="M90.0023 42.9929L92.8171 44.0269C93.0612 43.1653 93.3341 42.5621 93.65 42.2318C93.9803 41.8584 94.5835 41.6717 95.4595 41.6717C96.1919 41.6717 96.7089 41.8153 97.0248 42.1169C97.3408 42.4185 97.4987 42.878 97.4987 43.5099V44.0126C96.4073 44.4147 95.402 44.7019 94.4686 44.8886C93.5351 45.0753 92.7309 45.2907 92.0559 45.5205C91.381 45.7502 90.8496 46.0949 90.4619 46.5257C90.0741 46.9566 89.8874 47.6172 89.8874 48.4932C89.8874 49.4697 90.2034 50.2309 90.8209 50.7909C91.4384 51.351 92.2714 51.6239 93.291 51.6239C93.7218 51.6239 94.167 51.5521 94.6409 51.4228C94.649 51.4147 94.6616 51.4112 94.6762 51.4071C94.6875 51.4039 94.7001 51.4004 94.7127 51.3941C95.4164 51.1787 96.0339 50.7478 96.5078 50.1734L97.4987 48.9671V49.5128L97.4844 51.3797H100.572V42.9929C100.572 41.6861 100.184 40.7526 99.4087 40.1782C98.6333 39.6181 97.3551 39.3309 95.5744 39.3309C94.8994 39.3309 94.2532 39.4027 93.6356 39.5463C93.0181 39.6899 92.4724 39.9053 91.9841 40.2069C91.4959 40.5085 91.0794 40.8962 90.7347 41.3558C90.3901 41.8153 90.1459 42.3611 90.0023 42.9929ZM93.65 48.9814C93.3771 48.7086 93.2479 48.3639 93.2479 47.9187C93.2479 47.2438 93.5351 46.6981 94.1096 46.2816C94.545 45.9768 95.3023 45.7545 96.3752 45.4395C96.7176 45.339 97.0922 45.2291 97.4987 45.104V46.9996C97.3838 47.4017 97.2115 47.7608 96.9961 48.0623C96.7807 48.3639 96.5509 48.6081 96.2924 48.8091C96.0483 48.9958 95.7754 49.1394 95.5026 49.2399C95.2297 49.3405 94.9856 49.3836 94.7845 49.3836C94.2962 49.3836 93.9229 49.2543 93.65 48.9814Z" fill="#141A23"/>
</svg>

<svg width="128" height="80" fill="none" xmlns="http://www.w3.org/2000/svg"><path d="m15.015 38.946 1.91-5.069H4l1.896 5.07h9.119Zm12.925 0 1.91-5.069h-8.028l1.895 5.07h4.223Zm-8.172 2.528 1.91 5.055H5.896L4 41.474h15.768Zm8.172 5.055 1.91-5.055h-5.113l1.939 5.055h1.264Z" fill="#00AF7E"/><path d="M23.353 51.394h5.04L23.54 38.756l-1.939-5.07L19.418 28H13.99l-2.183 5.687h4.897l1.896 5.07 4.753 12.637ZM9.868 38.756h4.926l-.948 2.528H8.892l.976-2.528Zm-2.915 7.583h4.998l-1.896 5.055H5l1.953-5.055Zm24.529 4.064c-.087.288-.302.46-.59.46a.586.586 0 0 1-.459-.187.7.7 0 0 1-.172-.488c0-.187.057-.345.187-.46a.597.597 0 0 1 .445-.186c.143 0 .273.043.373.129a.56.56 0 0 1 .216.33l-.245.086c-.043-.2-.172-.33-.344-.33-.216 0-.36.172-.36.445 0 .259.144.431.36.431.186 0 .301-.115.344-.33l.245.1Z" fill="#141A23"/><path fill-rule="evenodd" clip-rule="evenodd" d="M30.864 51.452a1.21 1.21 0 0 1-.89-.36 1.181 1.181 0 0 1-.36-.875c0-.345.116-.647.36-.876.244-.245.531-.36.89-.36.345 0 .646.115.876.36.244.244.36.53.36.876 0 .344-.116.646-.36.876-.23.23-.531.359-.876.359Zm.747-.489a1.04 1.04 0 0 0 .301-.76c0-.302-.1-.547-.301-.748a1.007 1.007 0 0 0-.747-.301 1.03 1.03 0 0 0-1.048 1.048c0 .302.1.546.301.761.201.201.46.302.747.302s.546-.1.747-.302Zm3.647.402h3.29l1.45-4.136h7.065l1.566 4.136h3.59l-6.807-17.707h-3.59l-6.564 17.707ZM46 44.4h-4.983l2.427-6.807L46 44.4Zm14.807 6.965v-3.418c-.446 2.283-1.68 3.662-4.021 3.662-2.413 0-4.811-1.939-4.811-6.204 0-4.136 2.412-6.075 4.81-6.075 2.341 0 3.562 1.35 4.022 3.62v-9.292h3.073v17.707h-3.073Zm-2.657-1.924c1.537 0 2.57-1.422 2.57-4.065 0-2.556-1.033-3.963-2.57-3.963s-2.757 1.422-2.757 3.964c-.015 2.656 1.22 4.064 2.757 4.064Z" fill="#141A23"/><path d="M70.112 51.365h2.126L77.48 39.56h-2.973l-3.073 7.698-3.016-7.698h-3.375l5.07 11.805ZM83.41 39.316c2.456 0 4.74 1.566 5.314 4.021l-2.815 1.034c-.402-2.168-1.393-3.073-2.685-3.073-1.58 0-2.614 1.465-2.614 4.136 0 2.858 1.25 4.136 2.643 4.136 1.436 0 2.197-1.106 2.67-3.303l2.816 1.034c-.446 2.614-2.815 4.294-5.314 4.294-3.418 0-6.233-2.527-6.233-6.16-.014-3.591 2.8-6.119 6.219-6.119Zm24.184 4.768c-1.895-.402-2.484-.732-2.484-1.364 0-.66.56-1.106 1.695-1.149 1.034 0 1.91.43 2.498 1.565l2.097-1.062c-.876-2.054-2.743-2.786-4.725-2.786-2.384 0-4.322 1.263-4.322 3.619 0 2.197 1.292 3.245 4.035 3.805 1.896.402 2.485.804 2.485 1.494 0 .632-.503 1.034-1.752 1.034-1.322 0-2.413-.489-3.002-1.623l-2.097 1.178c.876 1.866 2.571 2.786 5.027 2.786 3.288 0 4.581-1.767 4.581-3.82 0-1.954-1.02-3.045-4.036-3.677Zm8.631 7.281h-3.073V33.658h3.073v9.78c.446-2.614 1.681-4.108 4.021-4.108 1.839 0 3.548 1.25 3.548 3.706v8.329h-3.074v-7.18c0-.546-.172-1.035-.474-1.537-.301-.503-.804-.733-1.493-.733-1.896 0-2.528 1.91-2.528 2.83v6.62Z" fill="#141A23"/><path fill-rule="evenodd" clip-rule="evenodd" d="m90.002 42.993 2.815 1.034c.244-.862.517-1.465.833-1.795.33-.374.933-.56 1.81-.56.732 0 1.249.143 1.565.445.316.302.474.761.474 1.393v.503a20.4 20.4 0 0 1-3.03.876c-.934.186-1.738.402-2.413.631-.675.23-1.206.575-1.594 1.006-.388.43-.575 1.091-.575 1.967 0 .977.316 1.738.934 2.298.617.56 1.45.833 2.47.833.43 0 .876-.072 1.35-.201a.076.076 0 0 1 .035-.016 3.766 3.766 0 0 0 1.832-1.234l.99-1.206v.546l-.014 1.867h3.088v-8.387c0-1.307-.388-2.24-1.163-2.815-.776-.56-2.054-.847-3.835-.847-.675 0-1.32.072-1.938.215a5.45 5.45 0 0 0-1.652.66 4.54 4.54 0 0 0-1.25 1.15 4.267 4.267 0 0 0-.732 1.637Zm3.648 5.988c-.273-.272-.402-.617-.402-1.062 0-.675.287-1.22.862-1.637.435-.305 1.192-.527 2.265-.842.343-.101.717-.21 1.124-.336V47a3.512 3.512 0 0 1-1.206 1.81c-.245.186-.518.33-.79.43a2.13 2.13 0 0 1-.719.144c-.488 0-.861-.13-1.134-.403Z" fill="#141A23"/></svg>
